X: 1
T: Miss Thompson
C:
R: reel
S: printed page in Concord Slow Scottish Session collection
Z: 2015 John Chambers <jc:trillian.mit.edu>
N: Initial pickup lengthened to fix the rhythm of repeats.
M: C|
L: 1/8
K: D
A2 |\
"D"d2df edcB | "D"A2AB AGFE | "D"DFAG "G"DGBG | "D"DFAF "A7"GFED |
"D"d2df edcB | "D"A2AB AGFE | "D"DAdA "A7"fedc | "D"d2d2 d2 :|
|: cd |\
"A"ecec Acec | "D"fdfd Adfd | "Em"gege "D"fdfd | "E7"edcB "A"A2A2 |
"G"BGBG DGBd | "D"AFAF DFAd | "D"FAdA "A7"fedc | "D"d2d2 d2 :|
